images_sukapura_svg/cmd/sc_distributerows.svg

<svg viewBox="0 0 16 16" xmlns="http://www.w3.org/2000/svg" xmlns:xlink="http://www.w3.org/1999/xlink"><linearGradient id="a" gradientTransform="matrix(1 0 0 -1 0 15.999939)" gradientUnits="userSpaceOnUse" x1="10" x2="10" y1="-.000061" y2="8.499939"><stop offset="0" stop-color="#0040dd"/><stop offset="1" stop-color="#0a84ff"/></linearGradient>




     /&amp;gt;
 <path d="m1 1h14v4h-14z" fill="#fff"/><path d="m1 7h14v4h-14z" fill="#fff"/><path d="m0 0v1 5h.99804688v-5h4.00195312 1 4 1 4.001953v5h.998047v-5-1zm1 5v1h4 1 4 1 4v-1h-4-1-4-1zm-1 2v4.5c-.00038442.276301.22369855.500384.5.5h1.6132812c-.1184649-.33115-.1285275-.686748-.0234374-.998047h-1.09179692v-4.001953zm15.001953 0v4.001953h-2.070312c.04556.129337.0803.265194.08789.414063.0098.191857-.03077.393633-.103515.583984h2.583984c.276301.000384.500384-.223699.5-.5v-4.5zm-9.8671874 4.001953.8691406.869141v-.869141z" fill="#69696e"/><path d="m2 11h11.5v1h-11.5z" fill="#69696e"/><path d="m5 1v4h1v-4zm5 0v4h1v-4z" fill="#bababa"/><path d="m5 7v4h1v-4zm4.9999999 0v4h1.0000001v-4z" fill="#bababa"/><path d="m8.484375 15.999939c-.1558217-.002451-.3020135-.077689-.3945312-.203125l-2.9433594-2.949218c-.3792086-.380073.0058529-.900869.4160156-.847657h1.4375v-3.999939c0-.277.2795294-.4999995.6269531-.4999995h.875.8710938c.3474237 0 .6269531.2229995.6269531.4999995v3.999939h1.40625c.424499-.08755.84435.462775.439453.84961l-2.9570311 2.955078c-.09621.125237-.2464126.197771-.4042969.195312z" fill="url(#a)"/><path d="m7.6269531 5.9921875c-.77877 0-1.6347656.5526585-1.6347656 1.5078125v3.492188h-.4296875l.1289062.007812c-.6610843-.085765-1.2090986.25168-1.5019531.751953-.0424326.072486-.0606102.16364-.0878906.248047h8.7988285c-.030402-.097247-.053445-.199677-.103516-.28125-.311805-.507976-.907893-.846532-1.59375-.705078l.203125-.021484h-.398438v-3.492188c.000002-.955154-.855995-1.5078125-1.6347651-1.5078125h-.8710938zm.78125 11.0078125c.020461.001161.0399584.007489.0605469.007812.0264699.000413.0518304-.006837.078125-.007812z" fill="#fff" fill-opacity=".784314"/><path d="m8.484375 15.999939c-.1558217-.002451-.3020135-.077689-.3945312-.203125l-2.9433594-2.949218c-.3792086-.380073.0058529-.900869.4160156-.847657h1.4375v-4.499939c0-.277.2795294-.4999995.6269531-.4999995h.875.8710938c.3474237 0 .6269531.2229995.6269531.4999995v4.499939h1.40625c.424499-.08755.84435.462775.439453.84961l-2.9570311 2.955078c-.09621.125237-.2464126.197771-.4042969.195312z" fill="url(#a)"/></svg>

<?xml version="1.0" encoding="UTF-8" standalone="no"?>
<svg
   xmlns:dc="http://purl.org/dc/elements/1.1/"
   xmlns:cc="http://creativecommons.org/ns#"
   xmlns:rdf="http://www.w3.org/1999/02/22-rdf-syntax-ns#"
   xmlns:svg="http://www.w3.org/2000/svg"
   xmlns="http://www.w3.org/2000/svg"
   xmlns:xlink="http://www.w3.org/1999/xlink"
   xmlns:sodipodi="http://sodipodi.sourceforge.net/DTD/sodipodi-0.dtd"
   xmlns:inkscape="http://www.inkscape.org/namespaces/inkscape"
   viewBox="0 0 16 16"
   version="1.1"
   id="svg10"
   sodipodi:docname="sc_distributerows.svg"
   inkscape:version="0.92.3 (unknown)"
   inkscape:export-filename="/home/rizmut/Dokumen/Rizmut/Github/libreoffice-style-sukapura/images_sukapura/cmd/sc_distributerows.png"
   inkscape:export-xdpi="96"
   inkscape:export-ydpi="96"><metadata
   id="metadata16">
  <rdf:RDF>
    <cc:Work
       rdf:about="">
      <dc:format>image/svg+xml</dc:format>
      <dc:type
         rdf:resource="http://purl.org/dc/dcmitype/StillImage" />
      <dc:title />
    </cc:Work>
  </rdf:RDF>
</metadata>
<defs
   id="defs14">
  <linearGradient
     gradientTransform="translate(75,-7)"
     id="a-367"
     gradientUnits="userSpaceOnUse"
     x1="14"
     x2="13.79661"
     y1="22"
     y2="2.1355929">
    <stop
       offset="0"
       stop-color="#0040dd"
       id="stop2206" />
    <stop
       offset="1"
       stop-color="#0a84ff"
       id="stop2208" />
  </linearGradient>
  <linearGradient
     inkscape:collect="always"
     xlink:href="#a-367"
     id="linearGradient2186"
     gradientUnits="userSpaceOnUse"
     x1="10"
     y1="-6.0999999e-05"
     x2="10"
     y2="8.499939"
     gradientTransform="matrix(1,0,0,-1,0,15.999939)" />
</defs>
<sodipodi:namedview
   pagecolor="#ffffff"
   bordercolor="#666666"
   borderopacity="1"
   objecttolerance="10"
   gridtolerance="10"
   guidetolerance="10"
   inkscape:pageopacity="0"
   inkscape:pageshadow="2"
   inkscape:window-width="1366"
   inkscape:window-height="706"
   id="namedview12"
   showgrid="true"
   inkscape:zoom="14.75"
   inkscape:cx="12.060206"
   inkscape:cy="0.65222018"
   inkscape:window-x="0"
   inkscape:window-y="0"
   inkscape:window-maximized="1"
   inkscape:current-layer="g2248"
   inkscape:snap-smooth-nodes="true">
  <inkscape:grid
     type="xygrid"
     id="grid823"
     spacingx="0.5"
     spacingy="0.5"
     empspacing="2" />
</sodipodi:namedview>




     /&gt;
 <g
   id="g2248">
  <rect
     style="fill:#ffffff;fill-opacity:1;stroke:none"
     id="rect824"
     width="14"
     height="4"
     x="1"
     y="1" />
  <rect
     style="fill:#ffffff;fill-opacity:1;stroke:none"
     id="rect826"
     width="14"
     height="4"
     x="1"
     y="7" />
  <path
     style="fill:#69696e;fill-opacity:1"
     d="M 0 0 L 0 1 L 0 6 L 0.99804688 6 L 0.99804688 1 L 5 1 L 6 1 L 10 1 L 11 1 L 15.001953 1 L 15.001953 6 L 16 6 L 16 1 L 16 0 L 0 0 z M 1 5 L 1 6 L 5 6 L 6 6 L 10 6 L 11 6 L 15 6 L 15 5 L 11 5 L 10 5 L 6 5 L 5 5 L 1 5 z M 0 7 L 0 11.5 C -0.00038442 11.776301 0.22369855 12.000384 0.5 12 L 2.1132812 12 C 1.9948163 11.66885 1.9847537 11.313252 2.0898438 11.001953 L 0.99804688 11.001953 L 0.99804688 7 L 0 7 z M 15.001953 7 L 15.001953 11.001953 L 12.931641 11.001953 C 12.977201 11.13129 13.011941 11.267147 13.019531 11.416016 C 13.029331 11.607873 12.988761 11.809649 12.916016 12 L 15.5 12 C 15.776301 12.000384 16.000384 11.776301 16 11.5 L 16 7 L 15.001953 7 z M 5.1347656 11.001953 L 6.0039062 11.871094 L 6.0039062 11.001953 L 5.1347656 11.001953 z "
     id="path4-3" />
  <rect
     style="fill:#69696e;fill-opacity:1;stroke:none"
     id="rect834"
     width="11.5"
     height="1"
     x="2"
     y="11" />
  <path
     inkscape:connector-curvature="0"
     style="fill:#bababa;fill-opacity:1"
     d="M 5,1 V 5 H 6 V 1 Z m 5,0 v 4 h 1 V 1 Z"
     id="path836"
     sodipodi:nodetypes="cccccccccc" />
  <path
     sodipodi:nodetypes="cccccccccc"
     id="path838"
     d="m 5,7 v 4 H 6 V 7 Z m 4.9999999,0 v 4 H 11 V 7 Z"
     style="fill:#bababa;fill-opacity:1"
     inkscape:connector-curvature="0" />
  <path
     inkscape:connector-curvature="0"
     d="M 8.484375,15.999939 C 8.3285533,15.997488 8.1823615,15.92225 8.0898438,15.796814 L 5.1464844,12.847596 C 4.7672758,12.467523 5.1523373,11.946727 5.5625,11.999939 H 7 V 8 C 7,7.723 7.2795294,7.5000005 7.6269531,7.5000005 h 0.875 0.8710938 C 9.7204706,7.5000005 10,7.723 10,8 v 3.999939 h 1.40625 c 0.424499,-0.08755 0.84435,0.462775 0.439453,0.84961 l -2.9570311,2.955078 c -0.09621,0.125237 -0.2464126,0.197771 -0.4042969,0.195312 z"
     id="path2184"
     style="fill:url(#linearGradient2186);fill-opacity:1"
     sodipodi:nodetypes="cccccsscssccccc" />
  <path
     style="fill:#ffffff;fill-opacity:0.78431374"
     d="M 7.6269531 5.9921875 C 6.8481831 5.9921875 5.9921875 6.544846 5.9921875 7.5 L 5.9921875 10.992188 L 5.5625 10.992188 L 5.6914062 11 C 5.0303219 10.914235 4.4823076 11.25168 4.1894531 11.751953 C 4.1470205 11.824439 4.1288429 11.915593 4.1015625 12 L 12.900391 12 C 12.869989 11.902753 12.846946 11.800323 12.796875 11.71875 C 12.48507 11.210774 11.888982 10.872218 11.203125 11.013672 L 11.40625 10.992188 L 11.007812 10.992188 L 11.007812 7.5 C 11.007814 6.544846 10.151817 5.9921875 9.3730469 5.9921875 L 8.5019531 5.9921875 L 7.6269531 5.9921875 z M 8.4082031 17 C 8.4286641 17.001161 8.4481615 17.007489 8.46875 17.007812 C 8.4952199 17.008225 8.5205804 17.000975 8.546875 17 L 8.4082031 17 z "
     id="path851" />
  <path
     sodipodi:nodetypes="cccccsscssccccc"
     style="fill:url(#linearGradient2186);fill-opacity:1"
     id="path847"
     d="M 8.484375,15.999939 C 8.3285533,15.997488 8.1823615,15.92225 8.0898438,15.796814 L 5.1464844,12.847596 C 4.7672758,12.467523 5.1523373,11.946727 5.5625,11.999939 H 7 V 7.5 C 7,7.223 7.2795294,7.0000005 7.6269531,7.0000005 h 0.875 0.8710938 C 9.7204706,7.0000005 10,7.223 10,7.5 v 4.499939 h 1.40625 c 0.424499,-0.08755 0.84435,0.462775 0.439453,0.84961 l -2.9570311,2.955078 c -0.09621,0.125237 -0.2464126,0.197771 -0.4042969,0.195312 z"
     inkscape:connector-curvature="0" />
</g>
</svg>
